src/assets/icons/instagramIcon.svg

<svg xmlns="http://www.w3.org/2000/svg" width="21" height="21" viewBox="0 0 21 21" fill="none">
<g clip-path="url(#clip0_1178_711)">
<path d="M10.2923 2.30078C12.9641 2.30078 13.2806 2.3125 14.3313 2.35937C15.3079 2.40234 15.8352 2.56641 16.1868 2.70313C16.6516 2.88281 16.9876 3.10156 17.3352 3.44922C17.6868 3.80078 17.9016 4.13281 18.0813 4.59766C18.2181 4.94922 18.3821 5.48047 18.4251 6.45312C18.472 7.50781 18.4837 7.82422 18.4837 10.4922C18.4837 13.1641 18.472 13.4805 18.4251 14.5313C18.3821 15.5078 18.2181 16.0352 18.0813 16.3867C17.9016 16.8516 17.6829 17.1875 17.3352 17.5352C16.9837 17.8867 16.6516 18.1016 16.1868 18.2813C15.8352 18.418 15.304 18.582 14.3313 18.625C13.2766 18.6719 12.9602 18.6836 10.2923 18.6836C7.62039 18.6836 7.30399 18.6719 6.25321 18.625C5.27664 18.582 4.7493 18.418 4.39774 18.2813C3.93289 18.1016 3.59695 17.8828 3.2493 17.5352C2.89774 17.1836 2.68289 16.8516 2.5032 16.3867C2.36649 16.0352 2.20242 15.5039 2.15945 14.5313C2.11258 13.4766 2.10086 13.1602 2.10086 10.4922C2.10086 7.82031 2.11258 7.50391 2.15945 6.45312C2.20242 5.47656 2.36649 4.94922 2.5032 4.59766C2.68289 4.13281 2.90164 3.79688 3.2493 3.44922C3.60086 3.09766 3.93289 2.88281 4.39774 2.70313C4.7493 2.56641 5.28055 2.40234 6.25321 2.35937C7.30399 2.3125 7.62039 2.30078 10.2923 2.30078ZM10.2923 0.5C7.57742 0.5 7.23758 0.511719 6.17117 0.558594C5.10867 0.605469 4.3782 0.777344 3.74539 1.02344C3.08524 1.28125 2.52664 1.62109 1.97195 2.17969C1.41336 2.73438 1.07352 3.29297 0.815704 3.94922C0.569611 4.58594 0.397736 5.3125 0.350861 6.375C0.303986 7.44531 0.292267 7.78516 0.292267 10.5C0.292267 13.2148 0.303986 13.5547 0.350861 14.6211C0.397736 15.6836 0.569611 16.4141 0.815704 17.0469C1.07352 17.707 1.41336 18.2656 1.97195 18.8203C2.52664 19.375 3.08524 19.7188 3.74149 19.9727C4.3782 20.2188 5.10477 20.3906 6.16727 20.4375C7.23367 20.4844 7.57352 20.4961 10.2884 20.4961C13.0032 20.4961 13.3431 20.4844 14.4095 20.4375C15.472 20.3906 16.2024 20.2188 16.8352 19.9727C17.4915 19.7188 18.0501 19.375 18.6048 18.8203C19.1595 18.2656 19.5032 17.707 19.7571 17.0508C20.0032 16.4141 20.1751 15.6875 20.222 14.625C20.2688 13.5586 20.2806 13.2188 20.2806 10.5039C20.2806 7.78906 20.2688 7.44922 20.222 6.38281C20.1751 5.32031 20.0032 4.58984 19.7571 3.95703C19.511 3.29297 19.1712 2.73438 18.6126 2.17969C18.0579 1.625 17.4993 1.28125 16.8431 1.02734C16.2063 0.78125 15.4798 0.609375 14.4173 0.5625C13.347 0.511719 13.0071 0.5 10.2923 0.5Z" fill="white"/>
<path d="M10.2923 5.36328C7.45633 5.36328 5.15555 7.66406 5.15555 10.5C5.15555 13.3359 7.45633 15.6367 10.2923 15.6367C13.1282 15.6367 15.429 13.3359 15.429 10.5C15.429 7.66406 13.1282 5.36328 10.2923 5.36328ZM10.2923 13.832C8.45242 13.832 6.96024 12.3398 6.96024 10.5C6.96024 8.66016 8.45242 7.16797 10.2923 7.16797C12.1321 7.16797 13.6243 8.66016 13.6243 10.5C13.6243 12.3398 12.1321 13.832 10.2923 13.832Z" fill="white"/>
<path d="M16.8313 5.1601C16.8313 5.82416 16.2923 6.35932 15.6321 6.35932C14.968 6.35932 14.4329 5.82025 14.4329 5.1601C14.4329 4.49603 14.972 3.96088 15.6321 3.96088C16.2923 3.96088 16.8313 4.49994 16.8313 5.1601Z" fill="white"/>
</g>
<defs>
<clipPath id="clip0_1178_711">
<rect width="20" height="20" fill="white" transform="translate(0.292267 0.5)"/>
</clipPath>
</defs>
</svg>

<svg xmlns="http://www.w3.org/2000/svg" width="21" height="21" fill="none"><g fill="#fff" clip-path="url(#a)"><path d="M10.292 2.3c2.672 0 2.989.013 4.04.06.976.042 1.503.206 1.855.343.465.18.8.399 1.148.746.352.352.567.684.746 1.149.137.351.301.882.344 1.855.047 1.055.059 1.371.059 4.04 0 2.671-.012 2.987-.059 4.038-.043.977-.207 1.504-.344 1.856-.18.465-.398.8-.746 1.148a3.1 3.1 0 0 1-1.148.746c-.352.137-.883.301-1.856.344-1.054.047-1.37.059-4.039.059-2.672 0-2.988-.012-4.039-.059-.976-.043-1.504-.207-1.855-.344-.465-.18-.801-.398-1.149-.746a3.1 3.1 0 0 1-.746-1.148c-.137-.352-.3-.883-.344-1.856-.046-1.054-.058-1.37-.058-4.039 0-2.672.012-2.988.058-4.039.043-.976.207-1.504.344-1.855.18-.465.399-.801.746-1.149a3.1 3.1 0 0 1 1.149-.746c.351-.137.883-.3 1.855-.344 1.051-.046 1.367-.058 4.04-.058m0-1.8c-2.715 0-3.054.012-4.12.059-1.063.046-1.794.218-2.427.464A4.9 4.9 0 0 0 1.972 2.18 4.9 4.9 0 0 0 .816 3.95C.57 4.585.398 5.311.35 6.374.304 7.445.292 7.785.292 10.5s.012 3.055.059 4.121c.047 1.063.219 1.793.465 2.426.258.66.597 1.219 1.156 1.773a4.9 4.9 0 0 0 1.77 1.153c.636.246 1.363.418 2.425.465 1.067.046 1.407.058 4.121.058s3.055-.012 4.121-.058c1.063-.047 1.793-.22 2.426-.465a4.9 4.9 0 0 0 1.77-1.153 4.9 4.9 0 0 0 1.152-1.77c.246-.636.418-1.363.465-2.425.047-1.066.059-1.406.059-4.121s-.012-3.055-.059-4.121c-.047-1.063-.219-1.793-.465-2.426a4.7 4.7 0 0 0-1.144-1.777 4.9 4.9 0 0 0-1.77-1.153C16.206.781 15.48.61 14.417.563 13.347.511 13.007.5 10.292.5"/><path d="M10.292 5.363A5.14 5.14 0 0 0 5.156 10.5c0 2.836 2.3 5.137 5.136 5.137s5.137-2.301 5.137-5.137-2.3-5.137-5.137-5.137m0 8.469a3.333 3.333 0 1 1 .001-6.665 3.333 3.333 0 0 1 0 6.665M16.831 5.16a1.2 1.2 0 1 1-2.399 0 1.2 1.2 0 0 1 2.4 0"/></g><defs><clipPath id="a"><path fill="#fff" d="M.292.5h20v20h-20z"/></clipPath></defs></svg>
